lib/functional/math&finance/number-square-zero.svg

<svg xmlns="http://www.w3.org/2000/svg" fill="none" stroke="currentColor" aria-hidden="true" viewBox="0 0 32 32"><g id="Icon-NumberSquareZero"><g clip-path="url(#clip0_12_4734)"><g id="size=md (32px)"><g id="NumberSquareZero"><path id="Vector" stroke-linecap="round" stroke-linejoin="round" stroke-width="2" d="M16 22C18.2091 22 20 19.3137 20 16C20 12.6863 18.2091 10 16 10C13.7909 10 12 12.6863 12 16C12 19.3137 13.7909 22 16 22Z"/><path id="Vector_2" stroke-linecap="round" stroke-linejoin="round" stroke-width="2" d="M26 5H6C5.44772 5 5 5.44772 5 6V26C5 26.5523 5.44772 27 6 27H26C26.5523 27 27 26.5523 27 26V6C27 5.44772 26.5523 5 26 5Z"/></g></g></g></g><defs><clipPath id="clip0_12_4734"><rect width="32" height="32" fill="white" rx="5"/></clipPath></defs></svg>

<svg xmlns="http://www.w3.org/2000/svg" fill="none" stroke="currentColor" aria-hidden="true" viewBox="0 0 32 32"><g stroke="#101828" stroke-linecap="round" stroke-linejoin="round" stroke-width="2" clip-path="url(#a)"><path d="M16 22c2.21 0 4-2.686 4-6s-1.79-6-4-6-4 2.686-4 6 1.79 6 4 6Z"/><path d="M26 5H6a1 1 0 0 0-1 1v20a1 1 0 0 0 1 1h20a1 1 0 0 0 1-1V6a1 1 0 0 0-1-1Z"/></g><defs><clipPath id="a"><rect width="32" height="32" fill="#fff" rx="5"/></clipPath></defs></svg>
